src/main/webapp/scripts/pdfjs/v54530/web/images/pages_viewArrow.svg

<svg fill="none" height="10" viewBox="0 0 8 10" width="8" xmlns="http://www.w3.org/2000/svg"><path d="m4.23336 7.46639 3.614-3.613c.04665-.04629.08368-.10136.10894-.16203.02527-.06067.03828-.12574.03828-.19147 0-.06572-.01301-.13079-.03828-.19146-.02526-.06067-.06229-.11574-.10894-.16204-.09377-.09373-.22092-.14639-.3535-.14639-.13259 0-.25974.05266-.3535.14639l-3.148 3.147-3.145004-3.146c-.094301-.09108-.220602-.14147-.351701-.14033-.131098.00114-.256504.05372-.349208.14642-.0927045.09271-.14528889.21811-.1464281.34921s.049258.2574.1403371.3517l3.612004 3.613z" fill="#000"/></svg>

<svg width="8" height="10" viewBox="0 0 8 10" fill="none" xmlns="http://www.w3.org/2000/svg">
  <path d="M4.23336 7.46639L7.84736 3.85339C7.89401 3.8071 7.93104 3.75203 7.9563 3.69136C7.98157 3.63069 7.99458 3.56562 7.99458 3.49989C7.99458 3.43417 7.98157 3.3691 7.9563 3.30843C7.93104 3.24776 7.89401 3.19269 7.84736 3.14639C7.75359 3.05266 7.62644 3 7.49386 3C7.36127 3 7.23412 3.05266 7.14036 3.14639L3.99236 6.29339L0.847356 3.14739C0.753055 3.05631 0.626754 3.00592 0.495655 3.00706C0.364557 3.0082 0.239151 3.06078 0.146447 3.15348C0.0537425 3.24619 0.00115811 3.37159 1.89013e-05 3.50269C-0.00112031 3.63379 0.0492769 3.76009 0.140356 3.85439L3.75236 7.46739L4.23336 7.46639Z" fill="black"/>
</svg>
